svgs/light/copyright.svg

<svg xmlns="http://www.w3.org/2000/svg" viewBox="0 0 512 512"><!-- Font Awesome Pro 6.0.0-alpha2 by @fontawesome - https://fontawesome.com License - https://fontawesome.com/license (Commercial License) --><path d="M256 16C123.451 16 16 123.451 16 256S123.451 496 256 496S496 388.549 496 256S388.549 16 256 16ZM256 464C141.309 464 48 370.691 48 256S141.309 48 256 48S464 141.309 464 256S370.691 464 256 464ZM323.875 188.125C330.125 194.375 340.25 194.375 346.5 188.125S352.75 171.75 346.5 165.5C298.188 117.125 213.812 117.125 165.5 165.5C141.312 189.656 128 221.812 128 256S141.312 322.344 165.5 346.5C189.656 370.688 221.812 384 256 384S322.344 370.688 346.5 346.5C352.75 340.25 352.75 330.125 346.5 323.875S330.125 317.625 323.875 323.875C287.625 360.125 224.375 360.125 188.125 323.875C169.999 305.75 160 281.656 160 256S169.999 206.25 188.125 188.125C224.375 151.875 287.625 151.875 323.875 188.125Z"/></svg>

<svg xmlns="http://www.w3.org/2000/svg" viewBox="0 0 512 512"><!--! Font Awesome Pro 6.3.0 by @fontawesome - https://fontawesome.com License - https://fontawesome.com/license (Commercial License) Copyright 2023 Fonticons, Inc. --><path d="M256 0C114.6 0 0 114.6 0 256s114.6 256 256 256s256-114.6 256-256S397.4 0 256 0zM256 480c-123.5 0-224-100.5-224-224s100.5-224 224-224s224 100.5 224 224S379.5 480 256 480zM323.9 188.1c6.25 6.25 16.38 6.25 22.62 0s6.25-16.38 0-22.62c-48.31-48.38-132.7-48.38-181 0C141.3 189.7 128 221.8 128 256s13.31 66.34 37.5 90.5C189.7 370.7 221.8 384 256 384s66.34-13.31 90.5-37.5c6.25-6.25 6.25-16.38 0-22.62s-16.38-6.25-22.62 0c-36.25 36.25-99.5 36.25-135.8 0C169.1 305.8 160 281.7 160 256s9.1-49.75 28.12-67.88C224.4 151.9 287.6 151.9 323.9 188.1z"/></svg>
